src/pos-icons/align-vertical-top.svg

<svg height="24" viewBox="0 0 24 24" width="24" xmlns="http://www.w3.org/2000/svg"><path d="m11 22h-6v-16h6zm8-16h-6v10h6zm3-4h-20v2h20z"/></svg>

<?xml version="1.0" encoding="UTF-8"?><!DOCTYPE svg PUBLIC "-//W3C//DTD SVG 1.1//EN" "http://www.w3.org/Graphics/SVG/1.1/DTD/svg11.dtd"><svg xmlns="http://www.w3.org/2000/svg" xmlns:xlink="http://www.w3.org/1999/xlink" version="1.1" id="mdi-align-vertical-top" width="24" height="24" viewBox="0 0 24 24"><path d="M11 22H5V6H11V22M19 6H13V16H19V6M22 2H2V4H22V2Z" /></svg>
